X:1750
T:Väntanpolska, variant med dubbelgrepp
R:Polska
C:Anton Teljebäck
Z:Anton Teljebäck
M:3/4
L:1/16
K:Dm
|:DEFG Acdc dcAG | AzcA cAGA c4 | d3c AGAc e3e | fedc dcAF D4 |
 DFAc dcdc AFAc | dzdc dcAc d3e | fedc dcAc dcAG |F2AF  E2C2 D4 :|
|:DFGA B4 G4 | [Fc]4 [DA]4 [Gd]4 | [Be]4 [Ed]4 [dg]4 | [da]4 [A^f]4 [Dd]4 |
 DFAc dcdc AFAc | dzdc dcAc d3e | fedc dcAc dcAG |F2AF  E2C2 D4 :|
(:musicend:)
(:music:)
